X: 7181
T: Ciaran's Capers
R: jig
M: 6/8
K: Amixolydian
ABc efe|cBA Bce|ABc efe|cBA B3|
ABc efe|cBA Bce|Aaa fge|ceB A2e:|
Aaa fge|cee cee|A2a fge|ceA B3|
Aaa fge|cee cee|A2a fge|ceB A3:|

